X: 1820
T: Söylemez miydim
C: II. Mahmut (Adlî)
O: Turkey
F: http://compmusic.upf.edu/node/140
N: hicaz--sarki--agiraksak--soylemez_miydim--ii_mahmud
N: makam= hicaz
N: form= sarki
N: usul= agiraksak = 9/4
M: 9/4
L: 1/16
K: C _7/8B ^f ^c 
Q: 1/4=60
%%MIDI tuningsystem comma53
d8 z2d4d2 f3e d2e2 c4 d8  | e2d2 c2d2 e2f2 e2d2 c2B2 B2A2 A8 z4  | 
w:   |   | 
c4 d4 d2e2 d2c2 d6c2 g8 f2e2  | e2f2 e2d2 d2e2 d2c2 c2B2 A2B2 c6d2 cBAB  | 
w:   |   | 
c8 z2g4g2 g4 f2e2 e2=b2 a2g2 f2e2  | \
w:   | 
=f3e dcd2 d2e4f2 e2d4f2 e2d2 c2B2 A2z2  | 
w:   | 
A4 B4 B2c2 B2A2 B6A2 d8 c2B2  | c3B A4 A4 z2a2 a3^g ^1/4f2g2 a6g2 =c'2=ba  | 
w:   |   | 
a8 z2a4a2 =c'3b a2b2 ^g4 a6z2  | a2^g2 =b2a2 g2g2 a2g2 ^1/4f2f2 e2g2 f2e2 e12 d4 e2^f2 =g3f e2g2 f3e d4 g8  | 
w:   |   | 
=f2e2 e2^f2 e2d2 d2e2 d2c2 c2B2 A2B2 c6d2  | \
w:   | 
cBAB c8 z2g4g2 g4 f2e2 e2=b2 a2g2  | 
w:   | 
f2e2 =f3e dcd2 d2e4f2 e2d4f2 e2d2 c2B2  | \
w:   | 
A2z2 A4 B4 B2c2 B2A2 B6A2 d8  | 
w:   | 
c2B2 c3B A4 A4 A4 z8 z4 z4  | z2|


